X:1
T:[ID 7-7]
T:[ID 7-7]
T:Bezeichnung standardisiert: Menuett Menuet 6.
T:Urheber unbekannt Erstbeleg: 1767 (Datum in der schriftlichen Quelle) Datum in der hier transkribierten schriftlichen Quelle: 1776 - 1791
C:Urheber unbekannt
C:Erstbeleg: 1767 (Datum in der schriftlichen Quelle)
C:Datum in der hier transkribierten schriftlichen Quelle: 1776 - 1791
L:1/8
M:3/4
K:G
V:1 treble 
V:1
 g4 (3gab | d2 Tc2 B2 | A4 (3cde | d2 F2 G2 | GBdgbg | a2 ^c2 d2 | egfed^c | d6 :: d4 (3de_f | %9
 edcB A2 | c4 (3cde | dcBA G2 | c2 B2 A2 | G2 F2 G2 | AcBAGF | G6 :| %16

